X: 213
T: Ships Are Sailing
C: R-115
C: Irish
M: C|
Z: Transcribed to abc by Mary Lou Knack
R: reel
% %staffwidth 15cm
P: E Dorian
K: EDor
"Em"Beed BcdB| "D"AD (3FED AD (3FED| "Em"EDEF GFGA| Bdef gfed|
"Em"Beed BcdB| "D"AD (3FED AD (3FED| "Em"EDEF GFGA |1\
        "D"Bded "Em"e2ed :|2 "D"Bded "Em"e2 |]
|:\
ef | "G"gfga bgeg| "D"fefg afdf| "Em"gfga bgeg| "D"fedf "Em"e2ef|
     "G"gfga bgeg| "D"fefg afdf| "G"g2ge "D"f2fd |1\
     "Em"edef gf :|2 "Em"edef gfed |] [e6e6] "go out on"z2|]
%%text 9/1/98
% ---------- page 110 ----------
